X:1
T:Crystal Sea, 87.87 D
T:Crystal Sea, 87.87 D
T:Henry James Ernest Holmes, ca. 1902
T:Public Domain Courtesy of the Cyber Hymnal™
C:Henry James Ernest Holmes, ca. 1902
Z:Public Domain
Z:Courtesy of the Cyber Hymnal™
%%score ( 1 2 ) ( 3 4 )
L:1/8
Q:1/4=115
M:4/4
K:Ab
V:1 treble 
V:2 treble 
V:3 bass 
V:4 bass 
V:1
 A3 A | A2 A2 A2 A2 | c4 A4 | [CA]3 [CA] [CA]2 [CA]2 | [DA]2 [DA]2 [Ec]4- | [Ec]4 [Gc]3 [GB] | %6
 [EA]2 E2 [Gc]3 [GB] | [FA]2 [CF]2 [FA]3 [FA] | [FA]2 [FA]2 [Fc]4 | c4 [Fc]4- | [Fc]4 [Ee]3 [EB] | %11
 [Gc]2 [GB]2 [EA]2 [CE]2 | [DG]2 [DF]2 [CE]2 [EA]2 | [Fd]2 [Ac]2 [FB]2 A2 | B4 [=Ec]3 [Ec] | %15
 [FB]2 [FA]2 [Ee]3 [Ee] | [Ad]2 [Ac]2 [FB]4 | [=Ac]4 [Bd]4 | [_Ac]4 [AB]4 | [GB]4 A4- | A4 |] %21
V:2
 A3 A | A2 A2 A2 A2 | c4 A4 | x8 | x8 | x8 | x2 E2 x4 | x8 | x8 | (F2 =E2) x4 | x8 | x8 | x8 | %13
 x6 A2 | (A2 G2) x4 | x8 | x8 | x8 | x8 | x4 A4- | A4 |] %21
V:3
 A,3 A, | A,2 A,2 A,2 A,2 | C4 A,4 | F,3 F, F,2 F,2 | [D,F,]2 [D,F,]2 [A,,A,]4- | %5
 [A,,A,]4 [E,D]3 [E,D] | [A,C]2 [A,C]2 [E,D]3 [E,D] | [F,C]2 [F,A,]2 [D,D]3 [D,D] | %8
 [D,D]2 [D,A,]2 [C,A,]4 | [C,A,]4 [F,A,]4- | [F,A,]4 [G,B,]3 [G,D] | %11
 [E,D]2 [E,D]2 [A,,C]2 [A,,A,]2 | [A,,F,]2 (F,G,) [A,,A,]2 [A,,C]2 | %13
 [B,,B,]2 [C,E]2 [D,D]2 [=D,B,]2 | B,4 [C,B,]3 [C,B,] | [F,C]2 [F,C]2 [G,B,]3 [G,B,] | %16
 [A,E]2 [A,E]2 [D,D]4 | [C,E]4 [B,,F]4 | E4 (B,2 C2) | [E,D]4 [A,,C]4- | [A,,C]4 |] %21
V:4
 A,3 A, | A,2 A,2 A,2 A,2 | C4 A,4 | F,3 F, F,2 F,2 | x8 | x8 | x8 | x8 | x8 | x8 | x8 | x8 | %12
 x2 A,,2 x4 | x8 | (E,2 _D,2) x4 | x8 | x8 | x8 | (C,2 D,2) E,4 | x8 | x4 |] %21

